packages/icons/src/components/ProductIcon/assets/abuse.svg

<svg>
  <g>
    <g>
      <path
        d="M0 16C0 7.16344 7.16344 0 16 0H48C56.8366 0 64 7.16344 64 16V48C64 56.8366 56.8366 64 48 64H16C7.16344 64 0 56.8366 0 48V16Z"
        fill="#EEEEFF"
        className="fillWeak"
      />
      <path
        fillRule="evenodd"
        clipRule="evenodd"
        d="M48.1878 32.5237C46.077 39.4556 41.2605 45.3935 33.7122 50.3714V52.1911C33.7122 52.7253 33.312 53.1184 32.8459 53.1832C32.984 53.1646 33.119 53.1171 33.2415 53.0407L33.9621 52.5912C47.3639 44.0928 53.0834 32.6472 51.0109 18.4027C50.9589 18.0454 50.8599 17.7024 50.7197 17.3807C50.8597 17.7022 50.9587 18.045 51.0106 18.402C51.7028 23.1597 51.5268 27.6124 50.478 31.754C50.3666 32.1936 49.9735 32.5032 49.52 32.5084L48.1878 32.5237ZM39.7362 12.3036L33.0321 10.0534L33.0253 10.0516C33.0264 10.052 33.0275 10.0524 33.0286 10.0527L39.7362 12.3036ZM32.3477 10.0685L17.0993 15.1865L16.7936 15.304C15.4964 15.8779 14.612 17.0403 14.4137 18.4027C12.3036 32.9061 18.2706 44.505 32.1894 53.0445C32.2621 53.0892 32.3391 53.1237 32.4185 53.1481C32.3407 53.1237 32.2638 53.0891 32.1893 53.0434C23.1064 47.4708 17.4007 40.5957 15.1228 32.4179L14.9726 31.8525C14.8039 31.2179 15.2824 30.5957 15.939 30.5957H16.725C15.8852 26.8982 15.7757 22.9314 16.3927 18.6908C16.4918 18.0097 16.9341 17.4284 17.5607 17.1506L17.7793 17.0668L31.7106 12.3911L31.7104 11.0009C31.7104 10.5653 31.9826 10.2116 32.3477 10.0685ZM48.7366 30.4287L48.7371 30.427C48.9226 29.5864 49.0705 28.7315 49.1809 27.8622C49.0705 28.7316 48.9224 29.5871 48.7366 30.4287ZM49.0315 18.6908L49.0314 18.6898C48.9228 17.9434 48.4036 17.3216 47.6886 17.0817L33.71 12.3906V12.3912L47.6887 17.0827C48.4037 17.3227 48.9229 17.9445 49.0315 18.6908Z"
        fill="#A365F6"
        className="fillStrong"
      />
      <path
        fillRule="evenodd"
        clipRule="evenodd"
        d="M33.7122 32.6894V52.1911C33.7122 52.9728 32.8556 53.4522 32.1893 53.0434C23.1064 47.4708 17.4007 40.5957 15.1228 32.4179L14.9726 31.8525C14.8039 31.2179 15.2824 30.5957 15.939 30.5957H31.7119L31.7104 11.0008C31.7104 10.3174 32.3807 9.8353 33.0286 10.0527L48.325 15.1858C49.755 15.6657 50.7934 16.9093 51.0106 18.402C51.7028 23.1597 51.5268 27.6124 50.478 31.754C50.3666 32.1936 49.9735 32.5032 49.52 32.5084L33.7122 32.6894ZM33.71 30.6886V12.3906L47.6886 17.0817C48.4036 17.3216 48.9228 17.9434 49.0314 18.6898L49.1593 19.6504C49.6207 23.4736 49.479 27.0645 48.7371 30.427L48.714 30.5166L33.71 30.6886ZM31.7123 32.5947V50.3687L31.5971 50.2943C24.4105 45.5278 19.7251 39.8849 17.5054 33.358L17.2583 32.5947H31.7123Z"
        fill="#4F0599"
        className="fill"
      />
    </g>
  </g>
</svg>

<svg>
    <path fill="#EEF" d="M0 16C0 7.163 7.163 0 16 0h32c8.837 0 16 7.163 16 16v32c0 8.837-7.163 16-16 16H16C7.163 64 0 56.837 0 48z" className="fillWeak"/>
    <path fill="#A365F6" d="M48.188 32.524c-2.111 6.932-6.928 12.87-14.476 17.847v1.82a1 1 0 0 1-.47.85l.72-.45c13.402-8.498 19.121-19.944 17.049-34.188a3.998 3.998 0 0 0 0-.001c.692 4.758.516 9.21-.533 13.352a1 1 0 0 1-.958.754zm-8.452-20.22-6.704-2.25-.007-.002h.004zm-7.388-2.235-15.249 5.118-.305.117c-1.298.574-2.182 1.736-2.38 3.099-2.11 14.503 3.857 26.102 17.775 34.642a.995.995 0 0 0 0-.002c-9.083-5.572-14.788-12.447-17.066-20.625l-.15-.566a1 1 0 0 1 .966-1.256h.786c-.84-3.698-.95-7.665-.332-11.905a2 2 0 0 1 1.168-1.54l.218-.084 13.932-4.676v-1.39c0-.436.272-.79.637-.932m16.389 20.36v-.002a28.64 28.64 0 0 0 0 .002m.294-11.738a2 2 0 0 0-1.342-1.608L33.71 12.39l13.979 4.692a2 2 0 0 1 1.343 1.608" className="fillStrong" clipRule="evenodd" fillRule="evenodd"/>
    <path fill="#4F0599" d="M33.712 32.69v19.5a1 1 0 0 1-1.523.852c-9.083-5.572-14.788-12.447-17.066-20.625l-.15-.566a1 1 0 0 1 .966-1.256h15.773L31.71 11a1 1 0 0 1 1.319-.948l15.296 5.133a4 4 0 0 1 2.686 3.216c.692 4.758.516 9.21-.533 13.352a1 1 0 0 1-.958.754zm-.002-2.001V12.39l13.979 4.69a2 2 0 0 1 1.342 1.609l.128.96c.462 3.824.32 7.415-.422 10.777l-.023.09zm-1.998 1.906v17.774l-.115-.075c-7.187-4.766-11.872-10.41-14.092-16.936l-.247-.763z" className="fill" clipRule="evenodd" fillRule="evenodd"/>
</svg>
